img/service-pay-proccess__01.svg

<svg width="38" height="38" viewBox="0 0 38 38" fill="none" xmlns="http://www.w3.org/2000/svg">
<g clip-path="url(#clip0)">
<path d="M19.0155 31.709H19.0066C18.8122 31.7111 18.6289 31.7883 18.4908 31.9264C18.3506 32.0667 18.2734 32.253 18.2734 32.4512C18.2734 32.8601 18.6067 33.1934 19.0155 33.1934H19.0163C19.4252 33.1934 19.7577 32.8601 19.7577 32.4512C19.7577 32.0415 19.4252 31.709 19.0155 31.709Z" fill="white"/>
<path d="M16.6015 31.8787C16.4694 31.7311 16.2869 31.645 16.0888 31.6345C13.2598 31.4891 10.4234 31.1298 7.65753 30.5665L7.58554 30.5524C7.53953 30.5436 7.49195 30.5391 7.44527 30.5391C7.08976 30.5391 6.78405 30.7921 6.71659 31.141C6.67948 31.3362 6.71956 31.5336 6.83089 31.6976C6.94221 31.8616 7.11062 31.973 7.30507 32.0101L7.36147 32.0211C10.2 32.5993 13.1106 32.9674 16.0131 33.1167C16.0249 33.1174 16.0383 33.1182 16.0517 33.1182C16.4464 33.1182 16.7714 32.8087 16.7923 32.4138C16.8019 32.2157 16.7344 32.0257 16.6015 31.8787Z" fill="white"/>
<path d="M31.2861 31.1405C31.2191 30.7909 30.9127 30.5371 30.558 30.5371C30.5111 30.5371 30.4637 30.5416 30.4177 30.5505L30.3435 30.5646C27.588 31.1257 24.762 31.4841 21.945 31.6311C21.7468 31.6415 21.5643 31.7283 21.4322 31.8753C21.2993 32.0222 21.2318 32.213 21.2423 32.4104C21.263 32.8052 21.5881 33.1139 21.9829 33.1139C21.997 33.1139 22.0096 33.1139 22.0222 33.1132C24.9135 32.9625 27.8137 32.5944 30.6412 32.0192L30.6961 32.0081C30.8913 31.971 31.0598 31.8604 31.1711 31.6964C31.2824 31.5324 31.3232 31.335 31.2861 31.1405Z" fill="white"/>
<path d="M28.6493 15.1973C28.2397 15.1973 27.9072 15.5305 27.9072 15.9395C27.9072 16.3484 28.2397 16.6816 28.6493 16.6816C29.0582 16.6816 29.3914 16.3484 29.3914 15.9395C29.3914 15.5305 29.0582 15.1973 28.6493 15.1973Z" fill="white"/>
<path d="M25.678 15.1973H9.35149C8.94262 15.1973 8.60938 15.5305 8.60938 15.9395C8.60938 16.3484 8.94262 16.6816 9.35149 16.6816H25.678C26.0869 16.6816 26.4201 16.3484 26.4201 15.9395C26.4201 15.5305 26.0869 15.1973 25.678 15.1973Z" fill="white"/>
<path d="M37.5139 27.9528C37.1824 27.2069 36.8356 26.4522 36.5004 25.7224C35.0165 22.4919 33.4819 19.1514 32.9044 15.7684C32.5765 13.9541 31.1958 12.5807 29.5011 12.2875C29.1794 10.5667 27.6672 9.25975 25.8546 9.25975H21.2263V7.68142C22.5051 7.351 23.4526 6.1874 23.4526 4.80664C23.4526 3.16967 22.1209 1.83789 20.4842 1.83789C19.9435 1.83789 19.4366 1.98388 18.9995 2.23756C18.5627 1.98395 18.0561 1.83789 17.5156 1.83789C15.8788 1.83789 14.5472 3.16967 14.5472 4.80664C14.5472 6.1874 15.4947 7.351 16.7735 7.68142V9.25975H12.1453C10.3327 9.25975 8.82049 10.5666 8.49883 12.2874C6.80434 12.5804 5.42328 13.9547 5.09435 15.7755C4.51797 19.1517 2.98335 22.4924 1.4992 25.7231C1.1641 26.4527 0.8175 27.2072 0.486039 27.9528C-0.141924 29.3651 -0.161518 30.6413 0.428 31.7456C1.48242 33.7212 4.18517 34.5679 6.27012 34.9305C10.4506 35.7465 14.7334 36.1603 19 36.1603C23.2666 36.1603 27.5493 35.7466 31.7297 34.9306C33.8146 34.5681 36.5175 33.7213 37.572 31.7458C38.1615 30.6415 38.1419 29.3652 37.5139 27.9528ZM20.4842 3.32226C21.3027 3.32226 21.9685 3.98815 21.9685 4.80664C21.9685 5.62512 21.3027 6.29101 20.4842 6.29101C19.6658 6.29101 19 5.62512 19 4.80664C19 3.98815 19.6658 3.32226 20.4842 3.32226ZM18.2579 7.6806C18.521 7.61247 18.7702 7.50945 18.9999 7.37616C19.2297 7.50953 19.4787 7.61336 19.7421 7.68142V9.25975H18.2579V7.6806ZM16.0316 4.80664C16.0316 3.98815 16.6974 3.32226 17.5158 3.32226C17.6443 3.32226 17.7686 3.33941 17.8873 3.37058C17.6509 3.79645 17.5158 4.28599 17.5158 4.80664C17.5158 5.32735 17.6507 5.81712 17.8871 6.24299C17.7683 6.27371 17.644 6.29101 17.5158 6.29101C16.6974 6.29101 16.0316 5.62512 16.0316 4.80664ZM12.1453 10.7441H25.8546C26.8221 10.7441 27.647 11.3647 27.9533 12.2285H10.0466C10.353 11.3647 11.1779 10.7441 12.1453 10.7441ZM36.2627 31.0469C35.4178 32.6294 32.6286 33.2682 31.4685 33.4694C31.4634 33.4703 31.4582 33.4712 31.4531 33.4722C27.3638 34.2709 23.1739 34.6759 19 34.6759C14.8261 34.6759 10.6363 34.2709 6.54695 33.4722C6.54183 33.4711 6.53664 33.4702 6.53152 33.4693C5.37148 33.2681 2.58212 32.6293 1.73737 31.0466C1.36932 30.3571 1.4036 29.5423 1.84231 28.5558C2.17013 27.8184 2.51473 27.0682 2.84797 26.3428C4.37213 23.0248 5.94816 19.5939 6.55616 16.0323C6.76434 14.8797 7.73119 13.7128 9.17682 13.7128H28.8238C30.2687 13.7128 31.2355 14.8797 31.4425 16.0252C32.0517 19.5936 33.6276 23.0243 35.1516 26.3421C35.485 27.0678 35.8298 27.8183 36.1576 28.5559C36.5964 29.5424 36.6306 30.3573 36.2627 31.0469Z" fill="white"/>
</g>
<defs>
<clipPath id="clip0">
<rect width="38" height="38" fill="white"/>
</clipPath>
</defs>
</svg>

<svg width="38" height="38" fill="none" xmlns="http://www.w3.org/2000/svg"><g clip-path="url(#clip0)" fill="#fff"><path d="M19.015 31.709h-.008a.737.737 0 00-.516.217.743.743 0 00.525 1.267.743.743 0 000-1.484zm-2.413.17a.735.735 0 00-.513-.245 57.06 57.06 0 01-8.431-1.067l-.072-.015a.743.743 0 00-.28 1.458l.055.011c2.839.578 5.75.946 8.652 1.096l.039.001a.742.742 0 00.55-1.24zm14.684-.739a.743.743 0 00-.868-.59l-.075.015c-2.755.56-5.581.92-8.398 1.066a.737.737 0 00-.513.244.741.741 0 00.55 1.239h.04a58.71 58.71 0 008.62-1.095l.054-.01a.737.737 0 00.59-.868zM28.65 15.197a.743.743 0 100 1.486.743.743 0 000-1.486zm-2.972 0H9.351a.743.743 0 000 1.485h16.327a.743.743 0 000-1.485z"/><path d="M37.514 27.953c-.332-.746-.678-1.5-1.014-2.23-1.483-3.231-3.018-6.572-3.596-9.955-.328-1.814-1.708-3.187-3.403-3.48a3.716 3.716 0 00-3.646-3.028h-4.629V7.68a2.974 2.974 0 002.227-2.874 2.972 2.972 0 00-2.969-2.97c-.54 0-1.047.147-1.485.4a2.946 2.946 0 00-1.483-.4 2.972 2.972 0 00-2.969 2.97c0 1.38.948 2.544 2.226 2.874v1.58h-4.628A3.716 3.716 0 008.5 12.287c-1.695.293-3.076 1.668-3.405 3.488-.576 3.377-2.11 6.717-3.595 9.948-.335.73-.682 1.484-1.013 2.23-.628 1.412-.648 2.688-.058 3.793 1.054 1.975 3.757 2.822 5.842 3.185 4.18.816 8.463 1.23 12.73 1.23a66.6 66.6 0 0012.73-1.23c2.085-.363 4.787-1.21 5.842-3.185.59-1.104.57-2.38-.058-3.793zm-17.03-24.63a1.485 1.485 0 010 2.968A1.486 1.486 0 0119 4.807c0-.819.666-1.485 1.484-1.485zM18.258 7.68c.263-.069.512-.172.742-.305.23.134.479.237.742.305v1.58h-1.484V7.68zm-2.226-2.874a1.486 1.486 0 011.855-1.436 2.95 2.95 0 00-.371 1.436c0 .52.135 1.01.371 1.436a1.481 1.481 0 01-1.855-1.436zm-3.887 5.937h13.71c.967 0 1.792.62 2.098 1.485H10.047a2.23 2.23 0 012.098-1.485zm24.118 20.303c-.845 1.582-3.634 2.221-4.794 2.422l-.016.003A65.116 65.116 0 0119 34.676c-4.174 0-8.364-.405-12.453-1.204l-.015-.003c-1.16-.2-3.95-.84-4.795-2.422-.368-.69-.333-1.505.105-2.491.328-.738.673-1.488 1.006-2.213 1.524-3.318 3.1-6.75 3.708-10.31.208-1.153 1.175-2.32 2.62-2.32h19.648c1.445 0 2.411 1.167 2.618 2.312.61 3.569 2.186 7 3.71 10.317.333.726.678 1.476 1.006 2.214.438.986.473 1.801.105 2.49z"/></g><defs><clipPath id="clip0"><path fill="#fff" d="M0 0h38v38H0z"/></clipPath></defs></svg>
